X: 24845
T: Maggie's Pancakes
R: reel
M: 4/4
K: Bminor
fB~B2 fgfe|dB~B2 GBdB|cAAd AAec|AfdB ecAe|
fB~B2 fgfe|dB~B2 GBdB|cABc ABce|afec B2de:|
|:~f2dB GBdB|caec dB~B2|~f2dB GBdB|caec Bcde|
fd~d2 fgfe|dB~B2 GBdB|cAdA eAce|afec B2de:|
fB~B2 fgfe|dB~B2 GBdB|cA~A2 dAec|AfdB ecAe|
fB~B2 fgfe|dB~B2 GBdB|cA~A2 dAec|AfdB eAce|
fB~B2 fgfe|dB~B2 GBdB|cA~A2 dAeA|afdB eAce|

